X:0688
T:"Planxty O'Daly"                0688
C:Turlough  O' Carolan
C:spirited
Q:1/4=130
N:Transposed from Bb
B:O'Neill's Music Of Ireland (The 1850) Lyon & Healy, Chicago, 1903 edition
N:(Not listed in O'Sullivan's Collection ):  http://www.sosyourmom.com/occ/tunes.html
Z:FROM O'NEILL'S TO NOTEWORTHY, FROM NOTEWORTHY TO ABC, MIDI AND .TXT BY VINCE BRENNAN 6-21-03 (HTTP://WWW.SOSYOURMOM.COM)
I:abc2nwc
M:6/8
L:1/8
K:A
"^vb"(G/2F/2)|ECC ECB,|CFF F2G|A2-~A FAc|{c}BGF E2 (3(B/2c/2^d/2)|
eEE GEE|BGF (E3/2F/2G/2B/2)|c2{dc}^B (c3/2B/2G/2c/2)|BG^E F2||
(3(c/2^d/2^e/2)|f^ef F2(A/2c/2)|f^ef (F3/2B/2c/2^d/2)|e^de E2(G/2B/2)|eBG E2(F/2G/2)|
{B}AGA A,2^A|{c}B^AB G2(A/2B/2)|c2{dc}^B (c3/2B/2G/2c/2)|BG^E F2|]
